build/img/anti-mold.svg

<svg width="89" height="88" viewBox="0 0 89 88" fill="none" xmlns="http://www.w3.org/2000/svg">
<path d="M15.891 39.1211C13.8507 29.4074 3.20557 26.0807 3.20557 26.0807C3.20557 26.0807 12.4314 23.4195 16.2902 13.3953" stroke="black" stroke-width="2" stroke-miterlimit="10" stroke-linejoin="bevel"/>
<path d="M5.5 26.2583H15.6251C28.1332 26.2583 38.2017 36.3268 38.2017 48.7906V75.0043M4.00415 59.8793H85.7058M4.00415 51.2744H85.7058" stroke="black" stroke-width="2" stroke-miterlimit="10" stroke-linejoin="round"/>
<path d="M72.7097 13.3508C76.5686 23.4194 85.7944 26.0363 85.7944 26.0363C85.7944 26.0363 75.1493 29.4073 73.1089 39.0766" stroke="black" stroke-width="2" stroke-miterlimit="10" stroke-linejoin="bevel"/>
<path d="M83.5 26.2583H73.3749C60.9112 26.2583 50.7982 36.3712 50.7982 48.8349V75.0486" stroke="black" stroke-width="2" stroke-miterlimit="10" stroke-linejoin="round"/>
</svg>

<svg width="89" height="88" viewBox="0 0 89 88" fill="none" xmlns="http://www.w3.org/2000/svg"><path d="M15.891 39.121c-2.04-9.714-12.685-13.04-12.685-13.04s9.225-2.662 13.084-12.686" stroke="#000" stroke-width="2" stroke-miterlimit="10" stroke-linejoin="bevel"/><path d="M5.5 26.258h10.125c12.508 0 22.577 10.069 22.577 22.533v26.213M4.004 59.88h81.702M4.004 51.274h81.702" stroke="#000" stroke-width="2" stroke-miterlimit="10" stroke-linejoin="round"/><path d="M72.71 13.35c3.859 10.07 13.084 12.686 13.084 12.686S75.15 29.407 73.11 39.076" stroke="#000" stroke-width="2" stroke-miterlimit="10" stroke-linejoin="bevel"/><path d="M83.5 26.258H73.375c-12.464 0-22.577 10.113-22.577 22.577v26.214" stroke="#000" stroke-width="2" stroke-miterlimit="10" stroke-linejoin="round"/></svg>
